X:7718
T:Tumshie's Jig
O:england
C:Nigel Gatherer
M:6/8
L:1/8
K:D
A|d2 B ADE|F2 E FAA|BAF def|edc B2 c|dff cee|
BdB AFD|BdB AFD|EDC D2::E|F2 F AFD|BAF AFD|Adf agf|
fed eag|fdd ecc|dcB AFA|BdB AFD|EDC D2:|]


